!!!COM: Gomółka, Mikołaj
!!!CDT: ~1535-after 1591
!!!OTL: Głupia mądrości
!!!OTL@LAT: Coeli enarrant
!!!AGn: Motet; Psalm
!!!SCn: Gom2019
!!!SCn: Gom2019
!!!voices: 4
**kern	**kern	**kern	**kern
*staff4	*staff3	*staff2	*staff1
*Ivox	*Ivox	*Ivox	*Ivox
*I"Bassus	*I"Tenor	*I"Altus	*I"Cantus
*I'B	*I'T	*I'A	*I'C
*clefF4	*clefGv2	*clefG2	*clefG2
*k[b-]	*k[b-]	*k[b-]	*k[b-]
*M2/1	*M2/1	*M2/1	*M2/1
*met(C|)	*met(C|)	*met(C|)	*met(C|)
=1-	=1-	=1-	=1-
1F	1c	1f	1a
2F	2c	2.f	2a
2BB-	2d	.	2b-
.	.	4d	.
=2	=2	=2	=2
1C	2.c	4e	4g
.	.	2f	2a
.	4B-	4e	4g
2F	2A	2f	2a
[2F	[2f	[2a	[2cc
=3	=3	=3	=3
4F]	2f]	4a]	2cc]
4G	.	4b-	.
1A	2e	4cc	2a
.	.	4b-	.
.	4f	4a	2cc
.	4e	4g	.
4B-	4d	2f	[2dd
4A	4c	.	.
=4	=4	=4	=4
4G	4B-	2g	2dd]
4F	4A	.	.
2G	2B-	4d	2b-
.	.	4e	.
1F	1c	1f	1a
=5	=5	=5	=5
1F	1c	1f	1a
2F	2c	2.f	2a
2BB-	2d	.	2b-
.	.	4d	.
=6	=6	=6	=6
1C	2.c	4e	4g
.	.	2f	2a
.	4B-	4e	4g
2F	2A	2f	2a
[2F	[2f	[2a	[2cc
=7	=7	=7	=7
4F]	2f]	4a]	2cc]
4G	.	4b-	.
1A	2e	4cc	2a
.	.	4b-	.
.	4f	4a	2cc
.	4e	4g	.
4B-	4d	2f	[2dd
4A	4c	.	.
=8	=8	=8	=8
4G	4B-	2g	2dd]
4F	4A	.	.
2G	2B-	4d	2b-
.	.	4e	.
1F	1c	1f	1a
=9	=9	=9	=9
1c	2r	2g	1ee
.	2g	2cc	.
2d	2f	2a	2.ff
2B-	2f	2b-	.
.	.	.	4ee
=10	=10	=10	=10
1d	1f	4a	4dd
.	.	4g	4cc
.	.	4a	2dd
.	.	4b-	.
2c	2g	2cc	2ee
2C	2c	2e	2g
=11	=11	=11	=11
2D	2A	2.d	2.f
2BB-	2B-	.	.
.	.	4e	4e
2D	4A	2.f	4d
.	4G	.	4c
2D	4A	.	2d
.	4B-	4d	.
=12	=12	=12	=12
2C	2c	2g	2e
2F	2A	2c	2f
1F	1A	1c	1f
=13	=13	=13	=13
4BB-	1d	1f	1b-
4C	.	.	.
4D	.	.	.
4E-i	.	.	.
1F	1c	1f	1a
=14	=14	=14	=14
2C	2c	2e	2g
2C	2c	2cc	2.gg
1c	1e	2.g	.
.	.	.	4ff
.	.	.	2ee
.	.	4a	.
=15	=15	=15	=15
1B-	1.f	2b-	1dd
.	.	4f	.
.	.	4g	.
1A	.	2a	[1cc
.	[2e	4e	.
.	.	4f	.
=16	=16	=16	=16
0G	2e]	2.g	2cc]
.	4d	.	4bn
.	4c	4f	4a
.	4d	4g	4b
.	4e	4a	2cc
.	2d	4g	.
.	.	4f	4b
=17	=17	=17	=17
0C	0c	0e	0cc
==	==	==	==
*-	*-	*-	*-
!!!CNT: Polish
!!!OCY: Poland
!!!LYR: Jan Kochanowski (1530-1584/08/22)
!!!GTL: Melodiae na Psałterz Polski
!!!EFL: 19/150
!!!PPR: Łazarz Andrysowicz
!!!PPP: Kraków
!!!PDT: 1580
!!!YEC: 2015 Marcin Konik
!!!ENC: Marcin Konik
!!!END: 2015/03/06
!!!EED: Marcin Konik
!!!EEV: 2015/03/06
!!!ONB: Translated from MusicXML and edited on 2015/03/06 by Marcin Konik
!!!CharacterEncoding: utf-8
!!muse2ps: i2I150v85,85,85,150Q16
!!title: @{OTL}, @{GTL}, ed. @{ENC}
